X: 131
T: Chinese Breakdown
B: canberra pickers and fiddlers
B: old time tunes update
B: tunes
M:2/4
L:1/16
Q: 1/4=100
K:C
V:1 
((3vGAB |\
"C"c2)GG AAEF | G6 (vAB | c2)GG AAEE | "G"F2 F4 (vBc |\
d)cde d2(dc) | BABc B2(BA) | GGGG A2G2 | "C"E6 ((3GAB |
c2)GG AAEF | G2 G4 ({G}ED) | vC2C2 D2E2 | "F"F6 (Bc) |\
"G"d^cde d2(d=c) | BABc B2({c}BA) | GGGG A2B2 | "C"c6 :|
|: (ef |\
g2) g4 (fe) | c6 (ef) | g2g2 f2d2 | "F"A6 (de) |\
"G"fefg fedc | BABc B2({c}BA) | G2G2 A2G2 | "C"E6 (ef |
g2) g4 (fe) | c6 (ef) | g2g2 f2d2 | "F"A6  (Bc) |\
"G"d^cde d2(d=c) | BABc B2({c}BA) | GGGG A2B2 | "C"c6 :|
% abcbook-tune_id 67a7d9ec08f1393a1f312f19
% abcbook-tune_composer_id 
% abcbook-link-0 https://www.youtube.com/watch?v=oKd-1Vrt55U
% abcbook-link-title-0 Chinese Breakdown
% abcbook-link-1 https://www.youtube.com/watch?v=MDmJSV4Xyi0
% abcbook-link-title-1 Chinese Breakdown in D - Eli Fitch and Sharon on fiddles, Miss Moonshine on banjo - Tennessee jam
% abcbook-boost 0
% abcbook-difficulty 0
% abcbook-tags old time tunes
% abcbook-tablature 
% abcbook-transpose 2
% abcbook-tuning ADAE
% abcbook-lastupdated 1739275790484
% abcbook-src-url 
% abcbook-soundfonts 
% abcbook-repeats 1
%%MIDI transpose 2


